X: 388
T: Korobushka
O: trad Russia
M: 2/4
L: 1/8
Z: John Chambers <jc@trillian.mit.edu>
K: Am
| "E7"E3^G | B2 ^GE | "Am"A3 B | c2 BA | "E7"B3 c | d2 ed | "Am"c2 A2 | A4 |
|: "Dm"d3 f| a2 gf | "Am"e3 c | e2 dc | "E7"B3 c | d2ed | "Am"c2 A2 | A4 :|
